svgs/sharp-light/binary-lock.svg

<svg xmlns="http://www.w3.org/2000/svg" viewBox="0 0 640 512"><!--! Font Awesome Pro 6.6.0 by @fontawesome - https://fontawesome.com License - https://fontawesome.com/license (Commercial License) Copyright 2024 Fonticons, Inc. --><path d="M224 0l0 32 16 0 48 0 0 160-48 0-16 0 0 32 16 0 64 0 64 0 16 0 0-32-16 0-48 0 0-176 0-16L304 0 240 0 224 0zM0 288l0 32 16 0 48 0 0 160-48 0L0 480l0 32 16 0 64 0 64 0 16 0 0-32-16 0-48 0 0-176 0-16-16 0-64 0L0 288zM16 0L0 0 0 16 0 208l0 16 16 0 160 0 16 0 0-16 0-192 0-16L176 0 16 0zM32 192L32 32l128 0 0 160L32 192zm160 96l0 16 0 192 0 16 16 0 160 0 16 0 0-16 0-192 0-16-16 0-160 0-16 0zm32 32l128 0 0 160-128 0 0-160zm304-96c26.5 0 48 21.5 48 48l0 48-96 0 0-48c0-26.5 21.5-48 48-48zm-80 48l0 48-32 0 0 32 0 128 0 32 32 0 160 0 32 0 0-32 0-128 0-32-32 0 0-48c0-44.2-35.8-80-80-80s-80 35.8-80 80zm0 80l160 0 0 128-160 0 0-128z"/></svg>

<svg xmlns="http://www.w3.org/2000/svg" viewBox="0 0 640 512"><!--! Font Awesome Pro 6.4.2 by @fontawesome - https://fontawesome.com License - https://fontawesome.com/license (Commercial License) Copyright 2023 Fonticons, Inc. --><path d="M224 0V32h16 48V192H240 224v32h16 64 64 16V192H368 320V16 0H304 240 224zM0 288v32H16 64V480H16 0v32H16 80h64 16V480H144 96V304 288H80 16 0zM16 0H0V16 208v16H16 176h16V208 16 0H176 16zM32 192V32H160V192H32zm160 96v16V496v16h16H368h16V496 304 288H368 208 192zm32 32H352V480H224V320zm304-96c26.5 0 48 21.5 48 48v48H480V272c0-26.5 21.5-48 48-48zm-80 48v48H416v32V480v32h32H608h32V480 352 320H608V272c0-44.2-35.8-80-80-80s-80 35.8-80 80zm0 80H608V480H448V352z"/></svg>
